X: 19
T: Toss The Feathers
Z: Sean Perry
S: https://thesession.org/tunes/113#setting50892
R: reel
M: 4/4
L: 1/8
K: Edor
|:EB~B2 dB~B2|EBBA FDFA|BE E2 B2AB|1 defe dBAF:|2 defe dBAd||
Beed e2 de|fede fe ~e2|febe febe|fede feed|
Beed e2 de|fede fa (3aaa|b2bg a2af|egfe dBAF||

